X:1
T:Beautiful Mansions
T:Beautiful Mansions
T:William Batchelder Bradbury
T:Frances Jane (Fanny) Crosby, 1867
T:Public Domain Courtesy of the Cyber Hymnal™
C:William Batchelder Bradbury
Z:Public Domain
Z:Courtesy of the Cyber Hymnal™
%%score ( 1 2 ) ( 3 4 )
L:1/8
Q:1/4=110
M:3/4
K:G
V:1 treble 
V:2 treble 
V:3 bass 
V:4 bass 
V:1
 [GB]2 [FA]2 [DG]2 | [CE] [EG]4 z | [DF]2 [DG]2 [DA]2 | [DB]4 z2 | [GB]2 [FA]2 [DG]2 | %5
w: 1.~Beau- ti- ful|man- sions,|home of the|blest,|Land where the|
w: 2.~Here in a|des- ert|cheer- less I|roam.|La- den with|
w: 3.~Thou wilt not|leave me|com- fort- less|here.|Why should I|
w: 4.~Je- sus, I|love Thee,|dwell in my|heart;|Ne- ver, O|
 [CE] [EG]4 z | [DF]2 [DG]2 [DA]2 | [DG]4 z2 | [GB]2 [FA]2 [DG]2 | [CE] [EG]4 z | %10
w: faith- ful|ev- er shall|rest;|There is my|trea- sure,|
w: sor- row,|far from my|home.|Clouds on my|path- way|
w: doubt Thee?|What do I|fear?|Light in the|dist- ance|
w: ne- ver|from me de-|part.|Hope like a|rain- bow,|
 [DF]2 [DG]2 [DA]2 | [DB]4 z2 | [GB]2 [FA]2 [DG]2 | [CE] [EG]4 z | [DF]2 [DG]2 [DA]2 | [DG]4 z2 || %16
w: there shall I|be;|Lord I am|wea- ry,|lead me to|Thee.|
w: dark- ly I|see;|Lord I am|wea- ry,|lead me to|Thee.|
w: break- ing I|see,|Yet I am|wea- ry,|lead me to|Thee.|
w: shin- ing, I|see,|Yet I am|wea- ry,|lead me to|Thee.|
"^Refrain" [Fd]2 [FA]2 (ed) | [Gd]2 G2 [Gd]2 | [Fd][Fd] [Fd]2 (ed) | (dB) (ed) ([Ac][FA]) | %20
w: ||||
w: ||||
w: ||||
w: ||||
 [GB]2 [FA]2 [DG]2 | [CE] [EG]4 z | [DF]2 [DG]2 [DA]2 | [DG]4 z2 |] %24
w: ||||
w: ||||
w: ||||
w: ||||
V:2
 x6 | x6 | x6 | x6 | x6 | x6 | x6 | x6 | x6 | x6 | x6 | x6 | x6 | x6 | x6 | x6 || x4 F2 | %17
 x2 G2 x2 | x4 F2 | G2 G2 x2 | x6 | x6 | x6 | x6 |] %24
V:3
 [G,,D]2 [A,,C]2 [B,,B,]2 | [C,G,] [C,C]4 z | [D,A,]2 [D,B,]2 [D,C]2 | [G,B,]4 z2 | %4
w: ||||
 [G,,D]2 [A,,C]2 [B,,B,]2 | [C,G,] [C,C]4 z | [D,A,]2 [D,B,]2 [D,C]2 | [G,,B,]4 z2 | %8
w: ||||
 [G,,D]2 [A,,C]2 [B,,B,]2 | [C,G,] [C,C]4 z | [D,A,]2 [D,B,]2 [D,C]2 | [G,B,]4 z2 | %12
w: ||||
 [G,,D]2 [A,,C]2 [B,,B,]2 | [C,G,] [C,C]4 z | [D,A,]2 [D,B,]2 [D,C]2 | [G,,B,]4 z2 || %16
w: ||||
 [D,A,]2 [D,D]2 [D,C]2 | [G,B,]2 [G,B,]2 [G,B,]2 | [D,C][D,C] [D,C]2 [D,C]2 | (B,D) (CB,) [D,D]2 | %20
w: Sav- ior, be|near me, Thy|gen- tle voice can|cheer * me; * O|
 [G,,D]2 [A,,C]2 [B,,B,]2 | [C,G,] [C,C]4 z | [D,A,]2 [D,B,]2 [D,C]2 | [G,,B,]4 z2 |] %24
w: Je- sus, my|Sav- ior,|Lead me to|Thee.|
V:4
 x6 | x6 | x6 | x6 | x6 | x6 | x6 | x6 | x6 | x6 | x6 | x6 | x6 | x6 | x6 | x6 || x6 | x6 | x6 | %19
 G,2 G,2 x2 | x6 | x6 | x6 | x6 |] %24

